images/social/weibo@2x.svg

<svg height="30" viewBox="0 0 30 30" width="30" xmlns="http://www.w3.org/2000/svg"><g fill="none" stroke="#000" stroke-linecap="round" stroke-linejoin="round" stroke-width="1.4" transform="translate(5 7)"><g transform="translate(14)"><path d="m.6 3.6c.4197496.07059261.77263012.25259063 1.05864156.54599405.28601145.29340343.46646426.71140541.54135844 1.25400595"/><path d="m.6.3c1.4336141.39837944 2.55012004 1.06702975 3.34951782 2.00595093.79939779.93892118 1.31228638 2.01823636 1.53866577 3.23794555"/></g><path d="m13.5457045 6.81168414c-.2479573-.35674131-.7684613-.78179125-1.8348989-.78179125-.6610156 0-1.4394234.16653014-2.26788846.48262485.22426499-1.0792276-.08793434-1.68695467-.41368842-2.01393189-.32451319-.3261959-.78946163-.49858585-1.34581904-.49858585-1.395189 0-3.30177548 1.04537094-4.9757732 2.72800982-1.74606717 1.75626779-2.70763648 3.60032108-2.70763648 5.19165858 0 3.1701369 3.92069492 5.0648822 7.71124476 5.0648822 4.88478424 0 8.28875524-2.8303053 8.28875524-5.3707827-.0000382-1.2651416-.883467-2.30136006-2.3706377-2.77881338.302711-.82826047.2749905-1.50859333-.0836578-2.02327038z"/></g></svg>

<?xml version="1.0" encoding="UTF-8"?>
<svg width="30px" height="30px" viewBox="0 0 30 30" version="1.1" xmlns="http://www.w3.org/2000/svg" xmlns:xlink="http://www.w3.org/1999/xlink">
    <!-- Generator: Sketch 52.2 (67145) - http://www.bohemiancoding.com/sketch -->
    <title>投资组合/weibo@2x</title>
    <desc>Created with Sketch.</desc>
    <g id="投资组合/weibo" stroke="none" stroke-width="1" fill="none" fill-rule="evenodd" stroke-linecap="round" stroke-linejoin="round">
        <g id="Group" transform="translate(5.000000, 7.000000)" fill-rule="nonzero" stroke="#000000" stroke-width="1.4">
            <g id="weibo" transform="translate(14.000000, 0.000000)">
                <path d="M0.6,3.6 C1.0197496,3.67059261 1.37263012,3.85259063 1.65864156,4.14599405 C1.94465301,4.43939748 2.12510582,4.85739946 2.2,5.4" id="Path-2"></path>
                <path d="M0.6,0.3 C2.0336141,0.698379441 3.15012004,1.36702975 3.94951782,2.30595093 C4.74891561,3.24487211 5.2618042,4.32418729 5.48818359,5.54389648" id="Path-2"></path>
            </g>
            <path d="M13.5457045,6.81168414 C13.2977472,6.45494283 12.7772432,6.02989289 11.7108056,6.02989289 C11.04979,6.02989289 10.2713822,6.19642303 9.44291714,6.51251774 C9.66718213,5.43329014 9.3549828,4.82556307 9.02922872,4.49858585 C8.70471553,4.17238995 8.23976709,4 7.68340968,4 C6.28822068,4 4.3816342,5.04537094 2.70763648,6.72800982 C0.961569305,8.48427761 0,10.3283309 0,11.9196684 C0,15.0898053 3.92069492,16.9845506 7.71124476,16.9845506 C12.596029,16.9845506 16,14.1542453 16,11.6137679 C15.9999618,10.3486263 15.116533,9.31240784 13.6293623,8.83495452 C13.9320733,8.00669405 13.9043528,7.32636119 13.5457045,6.81168414 Z" id="Path"></path>
        </g>
    </g>
</svg>
